raw-svg/database.svg

<svg viewBox="0 0 24 24" xmlns="http://www.w3.org/2000/svg"><path d="m19.48 4.54a19.17 19.17 0 0 0 -7.48-1.79 19.17 19.17 0 0 0 -7.48 1.79 1.74 1.74 0 0 0 -1 1.59v11.74a1.74 1.74 0 0 0 1 1.59 19.17 19.17 0 0 0 7.48 1.79 19.17 19.17 0 0 0 7.48-1.79 1.74 1.74 0 0 0 1-1.59v-11.74a1.74 1.74 0 0 0 -1-1.59zm-.48 8a17.76 17.76 0 0 1 -7 1.72 17.76 17.76 0 0 1 -7-1.72v-3.86a18.64 18.64 0 0 0 7 1.57 18.64 18.64 0 0 0 7-1.57zm-13.85-6.64a17.56 17.56 0 0 1 6.85-1.65 17.67 17.67 0 0 1 6.86 1.65.26.26 0 0 1 .14.23v.87a17.76 17.76 0 0 1 -7 1.72 17.76 17.76 0 0 1 -7-1.72v-.9a.25.25 0 0 1 .15-.2zm13.7 12.2a17.56 17.56 0 0 1 -6.85 1.65 17.67 17.67 0 0 1 -6.86-1.65.26.26 0 0 1 -.14-.23v-3.69a18.64 18.64 0 0 0 7 1.57 18.64 18.64 0 0 0 7-1.57v3.69a.25.25 0 0 1 -.15.23z"/></svg>

<svg xmlns="http://www.w3.org/2000/svg" viewBox="0 0 24 24"><g id="database"><path d="M19.48,4.54A19.17,19.17,0,0,0,12,2.75,19.17,19.17,0,0,0,4.52,4.54a1.74,1.74,0,0,0-1,1.59V17.87a1.74,1.74,0,0,0,1,1.59A19.17,19.17,0,0,0,12,21.25a19.17,19.17,0,0,0,7.48-1.79,1.74,1.74,0,0,0,1-1.59V6.13A1.74,1.74,0,0,0,19.48,4.54Zm-.48,8a17.76,17.76,0,0,1-7,1.72,17.76,17.76,0,0,1-7-1.72V8.68a18.64,18.64,0,0,0,7,1.57,18.64,18.64,0,0,0,7-1.57ZM5.15,5.9A17.56,17.56,0,0,1,12,4.25,17.67,17.67,0,0,1,18.86,5.9a.26.26,0,0,1,.14.23V7a17.76,17.76,0,0,1-7,1.72A17.76,17.76,0,0,1,5,7v-.9A.25.25,0,0,1,5.15,5.9Zm13.7,12.2A17.56,17.56,0,0,1,12,19.75,17.67,17.67,0,0,1,5.14,18.1.26.26,0,0,1,5,17.87V14.18a18.64,18.64,0,0,0,7,1.57,18.64,18.64,0,0,0,7-1.57v3.69A.25.25,0,0,1,18.85,18.1Z"/></g></svg>
